X:12
T:Arioso
C:J.S. Bach
N:TablEdited by Michael Burkey
L:1/8
Q:1/4=120
M:4/4
K:F
A4 zB cd | G4 zA Bc | F2 fd B2 z/c/B/A/ | Bg ec B2 AB | A2 GF z4 | f4 zd ef | 
G4 zB df | e4 zc AG | F2 z/G/F/E/ FA ce | d4 z/c/B/c/ d/B/G/F/ | EG =Bc c4 | zd fa =B/c/4B/4c/4B/4c/4Bz/4c | 
z/c6z3/2 | e4 zc AG | F4 zG AB | cd _e_g a2 c2 | B2 AG b4 | za ga/_g/ =g4 | zf _ed cB A_g | 
ga/g/ _g/=gaa/b/4a/4b/4a/4 b/4az/4g/ | zg4z3 | B4 zA GB | A4 zF GA | Bc d_e fe3/4d/e7/4 | 
_e2 d2 zG AB | (3EDE (3FEF (3GFG (3AGA | (3BAB g2 zA BG | Ac fd cB ef | A2 G4 z2 | 
A4 zB cd | G4 zA Bc | F2 fd BB/c/ B/A3/2 | Bg ec B2 AB | Ac AF _E2 DE | DE EF F4 | 
zE FD EF/4E/4F/4E/4 F/4E3/4F | F8 | z8 | 
 

